X: 5
T: Sweet Biddy Of Ballyvourney
Z: UPipes & harp
S: https://thesession.org/tunes/153#setting50094
R: reel
M: 4/4
L: 1/8
K: Gmaj
F|:~G2 BG Bdde | fdgd fdcA | ~G2 BG Bdde | fdcA GFEF |
~G2 BG Bdde | fdde fdcA | ~G2 BG Bdde | fdcA G3 G :||
|: g2 dg g2 de | fdgd fdcd | dggf g2 dg | fdcA ~G3 f|
g2 dg ~g2 de | fdgd fdcA | dg ~g2 bgag|1 fdcA Gggf :|2 fdcA GFED | G4||

%-------------------- TUNE SEPARATOR --------------------%

